resources/apps/wordpress.svg

<?xml version="1.0" encoding="UTF-8" standalone="no"?>
<!-- Generator: Gravit.io -->

<svg
   xmlns:dc="http://purl.org/dc/elements/1.1/"
   xmlns:cc="http://creativecommons.org/ns#"
   xmlns:rdf="http://www.w3.org/1999/02/22-rdf-syntax-ns#"
   xmlns:svg="http://www.w3.org/2000/svg"
   xmlns="http://www.w3.org/2000/svg"
   xmlns:sodipodi="http://sodipodi.sourceforge.net/DTD/sodipodi-0.dtd"
   xmlns:inkscape="http://www.inkscape.org/namespaces/inkscape"
   style="isolation:isolate"
   viewBox="0 0 180 130"
   width="180pt"
   height="130pt"
   version="1.1"
   id="svg84"
   sodipodi:docname="wordpress.svg"
   inkscape:version="0.92.1 r15371">
  <metadata
     id="metadata88">
    <rdf:RDF>
      <cc:Work
         rdf:about="">
        <dc:format>image/svg+xml</dc:format>
        <dc:type
           rdf:resource="http://purl.org/dc/dcmitype/StillImage" />
      </cc:Work>
    </rdf:RDF>
  </metadata>
  <sodipodi:namedview
     pagecolor="#ffffff"
     bordercolor="#666666"
     borderopacity="1"
     objecttolerance="10"
     gridtolerance="10"
     guidetolerance="10"
     inkscape:pageopacity="0"
     inkscape:pageshadow="2"
     inkscape:window-width="1360"
     inkscape:window-height="728"
     id="namedview86"
     showgrid="false"
     inkscape:zoom="1.9255062"
     inkscape:cx="9.2490701"
     inkscape:cy="78.707252"
     inkscape:window-x="0"
     inkscape:window-y="0"
     inkscape:window-maximized="1"
     inkscape:current-layer="svg84" />
  <defs
     id="defs5">
    <clipPath
       id="_clipPath_wKxE1wR58SSpkWIcBrAmt85GT0EExDvw">
      <rect
         width="180"
         height="130"
         id="rect2" />
    </clipPath>
    <defs
       id="defs54">
      <filter
         style="color-interpolation-filters:sRGB"
         filterUnits="objectBoundingBox"
         height="4"
         width="4"
         y="-2"
         x="-2"
         id="45ZFaZdT2S8OuPbd2VARqdVC973eaI6A">
        <feGaussianBlur
           id="feGaussianBlur51"
           stdDeviation="0.19510511227481406" />
      </filter>
    </defs>
  </defs>
  <rect
     style="vector-effect:non-scaling-stroke;fill:#2f7ec8;stroke:#ffffff;stroke-width:1.02199996;stroke-linecap:butt;stroke-linejoin:miter;stroke-miterlimit:2"
     id="rect7"
     stroke-miterlimit="2"
     height="131.689"
     width="182.162"
     y="-1.0829999"
     x="-0.94499999" />
  <g
     id="g17">
    <g
       id="g15">
      <g
         id="g13">
        <g
           id="g11">
          <g
             style="opacity:0.15"
             id="g9" />
        </g>
      </g>
    </g>
  </g>
  <g
     id="g76"
     transform="matrix(1.1302674,0,0,1.081911,-12.900305,-5.6325005)">
    <g
       id="g58">
      <path
         style="fill:#ffffff"
         inkscape:connector-curvature="0"
         id="path56"
         d="m 56.044,65.065 c 0,14.046 8.216,26.172 20.091,31.816 L 59.2,50.469 c -2.025,4.447 -3.156,9.389 -3.156,14.596 z" />
    </g>
    <g
       id="g62">
      <path
         style="fill:#ffffff"
         inkscape:connector-curvature="0"
         id="path60"
         d="m 80.949,98.746 c 3.232,0.984 6.66,1.515 10.212,1.515 4.124,0 8.082,-0.716 11.758,-2.025 L 91.767,67.673 Z" />
    </g>
    <g
       id="g66">
      <path
         style="fill:#ffffff"
         inkscape:connector-curvature="0"
         id="path64"
         d="m 74.561,45.966 v 2.107 c 0,0.194 -0.151,0.351 -0.335,0.351 h -4.067 c -0.454,0 -0.646,0.275 -0.486,0.747 l 12.753,37.653 7.76,-23.482 -5.159,-14.14 C 84.84,48.689 84.618,48.424 83.824,48.424 h -3.569 c -0.184,0 -0.335,-0.158 -0.335,-0.351 v -2.107 c 0,-0.193 0.151,-0.359 0.335,-0.351 6.641,0.297 13.323,0.295 20.044,0 0.184,-0.008 0.335,0.158 0.335,0.351 v 2.107 c 0,0.194 -0.151,0.351 -0.335,0.351 H 96.75 c -0.704,0 -0.931,0.327 -0.736,0.9 l 12.554,37.064 4.609,-14.062 c 5.573,-17.002 -4.768,-18.801 -4.511,-27.254 0.127,-4.181 3.185,-6.006 6.249,-5.924 -6.253,-5.76 -14.594,-9.279 -23.754,-9.279 -12.351,0 -23.213,6.395 -29.474,16.06 3.99,-0.041 8.272,-0.087 12.538,-0.314 0.185,-0.009 0.336,0.158 0.336,0.351 z" />
    </g>
    <g
       id="g70">
      <path
         style="fill:#ffffff"
         inkscape:connector-curvature="0"
         id="path68"
         d="m 91.161,24.133 c -22.551,0 -40.839,18.33 -40.839,40.932 0,22.602 18.288,40.931 40.839,40.931 C 113.712,105.996 132,87.667 132,65.065 132,42.463 113.712,24.133 91.161,24.133 Z m 0,2.434 c 21.21,0 38.411,17.24 38.411,38.498 0,21.258 -17.201,38.498 -38.411,38.498 -21.21,0 -38.411,-17.24 -38.411,-38.498 0,-21.258 17.201,-38.498 38.411,-38.498 z" />
    </g>
    <g
       id="g74">
      <path
         style="fill:#ffffff"
         inkscape:connector-curvature="0"
         id="path72"
         d="m 122.047,48.306 c 0.192,5.236 -1.383,11.738 -3.078,16.551 l -10.954,31.089 c 10.882,-5.98 18.262,-17.568 18.262,-30.881 0,-6.067 -1.532,-11.776 -4.23,-16.759 z" />
    </g>
  </g>
</svg>

<?xml version="1.0" encoding="UTF-8" standalone="no"?><!-- Generator: Gravit.io --><svg xmlns="http://www.w3.org/2000/svg" xmlns:xlink="http://www.w3.org/1999/xlink" style="isolation:isolate" viewBox="0 0 180 130" width="180pt" height="130pt"><defs><clipPath id="_clipPath_wKxE1wR58SSpkWIcBrAmt85GT0EExDvw"><rect width="180" height="130"/></clipPath></defs><g clip-path="url(#_clipPath_wKxE1wR58SSpkWIcBrAmt85GT0EExDvw)"><rect x="-0.945" y="-1.083" width="182.162" height="131.689" transform="matrix(1,0,0,1,0,0)" fill="rgb(47,126,200)" vector-effect="non-scaling-stroke" stroke-width="1.022" stroke="rgb(255,255,255)" stroke-linejoin="miter" stroke-linecap="butt" stroke-miterlimit="2"/><g><g><g><g><g><g style="opacity:0.15;"/></g></g></g></g><g><g style="opacity:0.3;" filter="url(#45ZFaZdT2S8OuPbd2VARqdVC973eaI6A)"><g style="opacity:0.3;"><g opacity="0.3"><path d=" M 56.044 65.065 C 56.044 79.111 64.26 91.237 76.135 96.881 L 59.2 50.469 C 57.175 54.916 56.044 59.858 56.044 65.065 Z " fill="rgb(0,0,0)"/></g></g><g style="opacity:0.3;"><g opacity="0.3"><path d=" M 80.949 98.746 C 84.181 99.73 87.609 100.261 91.161 100.261 C 95.285 100.261 99.243 99.545 102.919 98.236 L 91.767 67.673 L 80.949 98.746 Z " fill="rgb(0,0,0)"/></g></g><g style="opacity:0.3;"><g opacity="0.3"><path d=" M 74.561 45.966 L 74.561 48.073 C 74.561 48.267 74.41 48.424 74.226 48.424 L 70.159 48.424 C 69.705 48.424 69.513 48.699 69.673 49.171 L 82.426 86.824 L 90.186 63.342 L 85.027 49.202 C 84.84 48.689 84.618 48.424 83.824 48.424 L 80.255 48.424 C 80.071 48.424 79.92 48.266 79.92 48.073 L 79.92 45.966 C 79.92 45.773 80.071 45.607 80.255 45.615 C 86.896 45.912 93.578 45.91 100.299 45.615 C 100.483 45.607 100.634 45.773 100.634 45.966 L 100.634 48.073 C 100.634 48.267 100.483 48.424 100.299 48.424 L 96.75 48.424 C 96.046 48.424 95.819 48.751 96.014 49.324 L 108.568 86.388 L 113.177 72.326 C 118.75 55.324 108.409 53.525 108.666 45.072 C 108.793 40.891 111.851 39.066 114.915 39.148 C 108.662 33.388 100.321 29.869 91.161 29.869 C 78.81 29.869 67.948 36.264 61.687 45.929 C 65.677 45.888 69.959 45.842 74.225 45.615 C 74.41 45.606 74.561 45.773 74.561 45.966 Z " fill="rgb(0,0,0)"/></g></g><g style="opacity:0.3;"><g opacity="0.3"><path d=" M 91.161 24.133 C 68.61 24.133 50.322 42.463 50.322 65.065 C 50.322 87.667 68.61 105.996 91.161 105.996 C 113.712 105.996 132 87.667 132 65.065 C 132 42.463 113.712 24.133 91.161 24.133 Z  M 91.161 26.567 C 112.371 26.567 129.572 43.807 129.572 65.065 C 129.572 86.323 112.371 103.563 91.161 103.563 C 69.951 103.563 52.75 86.323 52.75 65.065 C 52.75 43.807 69.951 26.567 91.161 26.567 L 91.161 26.567 Z " fill="rgb(0,0,0)"/></g></g><g style="opacity:0.3;"><g opacity="0.3"><path d=" M 122.047 48.306 C 122.239 53.542 120.664 60.044 118.969 64.857 L 108.015 95.946 C 118.897 89.966 126.277 78.378 126.277 65.065 C 126.277 58.998 124.745 53.289 122.047 48.306 Z " fill="rgb(0,0,0)"/></g></g></g><defs><filter id="45ZFaZdT2S8OuPbd2VARqdVC973eaI6A" x="-200%" y="-200%" width="400%" height="400%" filterUnits="objectBoundingBox" color-interpolation-filters="sRGB"><feGaussianBlur xmlns="http://www.w3.org/2000/svg" stdDeviation="0.19510511227481406"/></filter></defs><g><g><path d=" M 56.044 65.065 C 56.044 79.111 64.26 91.237 76.135 96.881 L 59.2 50.469 C 57.175 54.916 56.044 59.858 56.044 65.065 Z " fill="rgb(255,255,255)"/></g><g><path d=" M 80.949 98.746 C 84.181 99.73 87.609 100.261 91.161 100.261 C 95.285 100.261 99.243 99.545 102.919 98.236 L 91.767 67.673 L 80.949 98.746 Z " fill="rgb(255,255,255)"/></g><g><path d=" M 74.561 45.966 L 74.561 48.073 C 74.561 48.267 74.41 48.424 74.226 48.424 L 70.159 48.424 C 69.705 48.424 69.513 48.699 69.673 49.171 L 82.426 86.824 L 90.186 63.342 L 85.027 49.202 C 84.84 48.689 84.618 48.424 83.824 48.424 L 80.255 48.424 C 80.071 48.424 79.92 48.266 79.92 48.073 L 79.92 45.966 C 79.92 45.773 80.071 45.607 80.255 45.615 C 86.896 45.912 93.578 45.91 100.299 45.615 C 100.483 45.607 100.634 45.773 100.634 45.966 L 100.634 48.073 C 100.634 48.267 100.483 48.424 100.299 48.424 L 96.75 48.424 C 96.046 48.424 95.819 48.751 96.014 49.324 L 108.568 86.388 L 113.177 72.326 C 118.75 55.324 108.409 53.525 108.666 45.072 C 108.793 40.891 111.851 39.066 114.915 39.148 C 108.662 33.388 100.321 29.869 91.161 29.869 C 78.81 29.869 67.948 36.264 61.687 45.929 C 65.677 45.888 69.959 45.842 74.225 45.615 C 74.41 45.606 74.561 45.773 74.561 45.966 Z " fill="rgb(255,255,255)"/></g><g><path d=" M 91.161 24.133 C 68.61 24.133 50.322 42.463 50.322 65.065 C 50.322 87.667 68.61 105.996 91.161 105.996 C 113.712 105.996 132 87.667 132 65.065 C 132 42.463 113.712 24.133 91.161 24.133 Z  M 91.161 26.567 C 112.371 26.567 129.572 43.807 129.572 65.065 C 129.572 86.323 112.371 103.563 91.161 103.563 C 69.951 103.563 52.75 86.323 52.75 65.065 C 52.75 43.807 69.951 26.567 91.161 26.567 L 91.161 26.567 Z " fill="rgb(255,255,255)"/></g><g><path d=" M 122.047 48.306 C 122.239 53.542 120.664 60.044 118.969 64.857 L 108.015 95.946 C 118.897 89.966 126.277 78.378 126.277 65.065 C 126.277 58.998 124.745 53.289 122.047 48.306 Z " fill="rgb(255,255,255)"/></g></g></g></g></g></svg>
